src/assets/logo-tweaks/androgyne.svg

<svg width="26" height="26" viewBox="0 0 26 26" fill="none" xmlns="http://www.w3.org/2000/svg">
<g clip-path="url(#clip0)">
<mask id="mask0" mask-type="alpha" maskUnits="userSpaceOnUse" x="0" y="0" width="26" height="27">
<path fill-rule="evenodd" clip-rule="evenodd" d="M2.81103 0.181824C1.25842 0.181824 0 1.44018 0 2.99244V19.2393C0 20.7917 1.25854 22.0499 2.81103 22.0499H9.05065L13.028 26.0273L17.0053 22.0499H23.189C24.7416 22.0499 26 20.7916 26 19.2393V2.99244C26 1.44008 24.7415 0.181824 23.189 0.181824H2.81103Z" fill="#C4C4C4"/>
</mask>
<g mask="url(#mask0)">
<rect x="-1.25" y="20.625" width="31.3125" height="7.3125" fill="#182DB7"/>
<path fill-rule="evenodd" clip-rule="evenodd" d="M-3 1H25V21H-3V1Z" fill="black"/>
<path fill-rule="evenodd" clip-rule="evenodd" d="M-4 0H26V7.5H-4V0Z" fill="#CC4269"/>
<path fill-rule="evenodd" clip-rule="evenodd" d="M-4 5H26V11H-4V5Z" fill="#B86DD3"/>
<path fill-rule="evenodd" clip-rule="evenodd" d="M-4 9H26V15H-4V9Z" fill="#E9CA30"/>
<path fill-rule="evenodd" clip-rule="evenodd" d="M-4 13H26V19H-4V13Z" fill="#636363"/>
<path fill-rule="evenodd" clip-rule="evenodd" d="M-4 17H26V28H-4V17Z" fill="#5779DE"/>
</g>
</g>
<defs>
<clipPath id="clip0">
<rect width="26" height="26" fill="white"/>
</clipPath>
</defs>
</svg>

<svg fill="none" xmlns="http://www.w3.org/2000/svg" viewBox="0 0 26 26">
  <g clip-path="url(#androgyne__clip0)">
    <path fill="#182DB7" d="M-1.25 20.625h31.313v7.313H-1.25z"/>
    <path fill-rule="evenodd" clip-rule="evenodd" d="M-3 1h28v20H-3V1z" fill="#000"/>
    <path fill-rule="evenodd" clip-rule="evenodd" d="M-4 0h30v7.5H-4V0z" fill="#CC4269"/>
    <path fill-rule="evenodd" clip-rule="evenodd" d="M-4 5h30v6H-4V5z" fill="#B86DD3"/>
    <path fill-rule="evenodd" clip-rule="evenodd" d="M-4 9h30v6H-4V9z" fill="#E9CA30"/>
    <path fill-rule="evenodd" clip-rule="evenodd" d="M-4 13h30v6H-4v-6z" fill="#636363"/>
    <path fill-rule="evenodd" clip-rule="evenodd" d="M-4 17h30v11H-4V17z" fill="#5779DE"/>
  </g>
  <defs>
    <clipPath id="androgyne__clip0">
      <path fill="#fff" d="M0 0h26v26H0z"/>
    </clipPath>
  </defs>
</svg>
